Costumes/t-block.svg

<?xml version="1.0" encoding="UTF-8" standalone="no"?>
<svg
   version="1.1"
   width="60.724316"
   height="79.755867"
   id="svg5"
   sodipodi:docname="t-block.svg"
   xmlns:inkscape="http://www.inkscape.org/namespaces/inkscape"
   xmlns:sodipodi="http://sodipodi.sourceforge.net/DTD/sodipodi-0.dtd"
   xmlns="http://www.w3.org/2000/svg"
   xmlns:svg="http://www.w3.org/2000/svg">
  <defs
     id="defs9" />
  <sodipodi:namedview
     id="namedview7"
     pagecolor="#ffffff"
     bordercolor="#000000"
     borderopacity="0.25"
     inkscape:showpageshadow="2"
     inkscape:pageopacity="0.0"
     inkscape:pagecheckerboard="0"
     inkscape:deskcolor="#d1d1d1" />
  <!-- Exported by Scratch - http://scratch.mit.edu/ -->
  <g
     id="ID0.4960558828897774"
     transform="translate(-0.41082585,-0.22559727)">
    <path
       id="ID0.6435030931606889"
       fill="#ff9400"
       d="m 338,351 c -0.226,5.226 0.017,9.983 1,14 -6.02,1.981 -15.414,0.586 -23,1 -0.871,16.85 1.187,39.674 2,63 -4.875,-2.729 -11.958,3.059 -16,1 -0.252,-22.203 -0.338,-35.593 -1,-61 -5.992,-4.078 -12.974,1.853 -21,-2 -1.38,-5.044 0.061,-12.121 -1,-15 17.035,-0.65 41.451,-1.618 59,-1 z"
       transform="matrix(0.83855861,0,0,0.83855861,-226,-291.5)" />
    <path
       id="ID0.8345532864332199"
       d="m 276,348 c 11.065,0.091 16.51,0.621 21,0 14.991,0 30.012,-0.249 45,0 0.934,0.812 0,2 0,3 -0.333,0 -0.667,0 -1,0 0,6 0,12 0,18 -2.319,-0.319 -3.839,0.161 -5,1 -0.619,2.714 1.27,7.936 -1,9 -4.457,-0.85 -9.461,-0.249 -16,-1 1.059,15.56 0.36,37.795 4,55 -2.465,-0.132 -4.818,-0.151 -6,1 -1.047,2.829 1.65,6.86 0,7 -6.43,0.236 -14.282,-0.949 -18,2 -1.667,0 -3.333,0 -5,0 -5.263,-18.649 1.068,-44.783 -3,-63 -5.237,-2.901 -11.049,-1.157 -19,-1 1.158,-5.39 -0.667,-15.83 -2,-22 0,-0.667 0,-1.333 0,-2 1.667,0 3.333,0 5,0 0.01,-2.656 -0.709,-5.859 1,-7 z m 3,4 c 1.061,2.879 -0.38,9.956 1,15 8.026,3.853 15.008,-2.078 21,2 0.662,25.407 0.748,38.797 1,61 4.042,2.059 11.125,-3.729 16,-1 -0.813,-23.326 -2.871,-46.15 -2,-63 7.586,-0.414 16.98,0.981 23,-1 -0.983,-4.017 -1.226,-8.774 -1,-14 -17.549,-0.618 -41.965,0.35 -59,1 z"
       transform="matrix(0.83855861,0,0,0.83855861,-226,-291.5)" />
  </g>
</svg>

<svg version="1.1" width="62" height="80" xmlns="http://www.w3.org/2000/svg" xmlns:xlink="http://www.w3.org/1999/xlink">
  <!-- Exported by Scratch - http://scratch.mit.edu/ -->
  <g id="ID0.4960558828897774">
    <path id="ID0.6435030931606889" fill="#FF9400" d="M 338 351 C 337.774 356.226 338.017 360.983 339 365 C 332.980 366.981 323.586 365.586 316 366 C 315.129 382.850 317.187 405.674 318 429 C 313.125 426.271 306.042 432.059 302 430 C 301.748 407.797 301.662 394.407 301 369 C 295.008 364.922 288.026 370.853 280 367 C 278.620 361.956 280.061 354.879 279 352 C 296.035 351.350 320.451 350.382 338 351 Z " transform="matrix(0.8385586142539978, 0, 0, 0.8385586142539978, -226, -291.5)"/>
    <path id="ID0.8345532864332199" d="M 276 348 C 287.065 348.091 292.510 348.621 297 348 C 311.991 348 327.012 347.751 342 348 C 342.934 348.812 342 350 342 351 C 341.667 351 341.333 351 341 351 C 341 357 341 363 341 369 C 338.681 368.681 337.161 369.161 336 370 C 335.381 372.714 337.270 377.936 335 379 C 330.543 378.150 325.539 378.751 319 378 C 320.059 393.560 319.360 415.795 323 433 C 320.535 432.868 318.182 432.849 317 434 C 315.953 436.829 318.650 440.860 317 441 C 310.570 441.236 302.718 440.051 299 443 C 297.333 443 295.667 443 294 443 C 288.737 424.351 295.068 398.217 291 380 C 285.763 377.099 279.951 378.843 272 379 C 273.158 373.610 271.333 363.170 270 357 C 270 356.333 270 355.667 270 355 C 271.667 355 273.333 355 275 355 C 275.010 352.344 274.291 349.141 276 348 Z M 279 352 C 280.061 354.879 278.620 361.956 280 367 C 288.026 370.853 295.008 364.922 301 369 C 301.662 394.407 301.748 407.797 302 430 C 306.042 432.059 313.125 426.271 318 429 C 317.187 405.674 315.129 382.850 316 366 C 323.586 365.586 332.980 366.981 339 365 C 338.017 360.983 337.774 356.226 338 351 C 320.451 350.382 296.035 351.350 279 352 Z " transform="matrix(0.8385586142539978, 0, 0, 0.8385586142539978, -226, -291.5)"/>
  </g>
</svg>
